uploads/global/logo-hive.svg

<svg height="126" viewBox="0 0 200 126" width="200" xmlns="http://www.w3.org/2000/svg"><path d="m58.4532473 26.150374c-5.6444929-.4191556-6.597047-3.2485392-5.8058481-8.5121598.8279374-5.5050436 3.9695143-7.4634372 7.9963405-8.17436777 6.8195349-1.20344674 6.6270255 5.39166807 5.6206863 9.70293517-1.0277944 4.4026343-3.201534 7.3260529-7.8111787 6.9835924zm71.5167977 17.5661875c4.370404-.7226016 7.14489-2.7783647 8.496865-4.4239756 2.847963-3.4619518-.170467-7.0939667-3.374058-4.6210487-2.12789 1.6436101-4.155851 4.4393146-5.122807 9.0450243zm-19.130437 11.1481383c.849393 9.233761-3.218287 19.4372153-8.085394 25.8449273-3.6150622 4.7601003-7.5504832 7.2903729-11.2537173 7.2903729-8.4442554 0-10.0413486-10.1491008-11.888557-19.4258778-.9452064-4.746762-1.6984912-8.7795924-2.1037896-10.2031208-.3920726-1.376511-.8934787-1.629605-1.4695374-.0553539-2.4141559 6.5954483-6.2352469 22.2836053-13.6373064 22.4276587-6.2890319.1227122-8.8222204-8.6171988-9.042651-11.7850414-2.9878633 12.0324666-6.7598717 19.0070557-14.22953 18.5028685-7.5066906-.5065214-9.8021079-10.1787785-10.2891125-31.0238498-.0658353-2.8100431-.2274844-7.0652894-.3268251-9.9987116-.1008103-2.9811066-1.2655656-2.7833666-2.3832957-.1667286-1.2414651 2.9070792-3.4440077 8.2123819-4.5743758 11.1364674-5.9836621 15.4807466-7.8687846 22.5013527-13.96031072 22.5013527-6.98235968 0-7.84321465-9.1303893-7.54548638-23.2636357.25569949-12.1438413 1.74522253-31.1989148 4.25107759-56.6460277l11.75482911 1.53090162c-1.9715313 20.02476678-3.081032 34.18068828-3.6723738 44.18473528 4.7657096-13.9838577 11.7310226-20.2045002 18.2880982-19.3788604 8.6864351 1.0937394 10.3952131 11.4956007 11.2269713 29.4222553.1005163 2.1097831.1957423 8.0183098.4020654 11.2401725.0734769 1.1460921.5263883 1.0683966.8082455.2707671 3.4413625-9.7326128 5.1557248-20.8477389 6.5221006-28.840706.9119949-5.3353139 2.7974113-7.3460603 7.1569407-6.4570636 4.3933288.8959993 5.072549 3.3839228 5.1051727 8.3674394.0320359 4.805784.1851617 14.307978 1.6097312 20.7483687 3.7188112-8.9413191 6.2414189-20.3068714 14.470828-19.8066858 9.8650041.5995559 11.1972866 14.3289858 13.2184883 24.8545597.3879578 2.0217505.946382 4.681071 1.5018671 6.7405021 3.109541-2.5562822 11.853288-14.9498829 2.5834467-30.0945047-1.5577096-2.547279-2.5599341-5.5160477.6994997-8.7949315 2.6598626-2.678661 4.7377886-2.8760676 7.4299806.081697 5.451984 5.9882229 9.108193 8.3354275 14.16634 9.2904487 1.878069-11.3465453 7.691558-18.3581481 15.133295-21.080492 10.310274-3.7707331 20.955603 3.689703 17.951868 16.8445863-1.883946 8.2573985-9.472637 15.6521436-20.32664 17.3114262 1.284376 3.953801 3.888396 6.7675122 7.938441 6.7675122 6.677577 0 10.16332-5.9315352 11.315437-7.8162349l8.414571 8.2644012c-2.242514 4.1882214-8.693783 12.9831529-20.55001 12.9831529-9.111131 0-18.504414-6.8412062-20.235529-20.4112436-2.651045-.3758062-4.726032-.8869959-6.374853-1.3575039z" fill="#011c16" fill-rule="evenodd" transform="translate(20 18)"/></svg>

<?xml version="1.0" encoding="UTF-8"?>
<svg width="200px" height="126px" viewBox="0 0 200 126" version="1.1" xmlns="http://www.w3.org/2000/svg" xmlns:xlink="http://www.w3.org/1999/xlink">
    <!-- Generator: Sketch 52.5 (67469) - http://www.bohemiancoding.com/sketch -->
    <title>logo-hive</title>
    <desc>Created with Sketch.</desc>
    <g id="logo-hive" stroke="none" stroke-width="1" fill="none" fill-rule="evenodd">
        <g id="Logo_hive_web" transform="translate(20.000000, 18.000000)" fill="#011C16">
            <path d="M58.4532473,26.150374 C52.8087544,25.7312184 51.8562003,22.9018348 52.6473992,17.6382142 C53.4753366,12.1331706 56.6169135,10.174777 60.6437397,9.46384643 C67.4632746,8.26039969 67.2707652,14.8555145 66.264426,19.1667816 C65.2366316,23.5694159 63.062892,26.4928345 58.4532473,26.150374 Z M129.970045,43.7165615 C134.340449,42.9939599 137.114935,40.9381968 138.46691,39.2925859 C141.314873,35.8306341 138.296443,32.1986192 135.092852,34.6715372 C132.964962,36.3151473 130.937001,39.1108518 129.970045,43.7165615 Z M110.839608,54.8646998 C111.689001,64.0984608 107.621321,74.3019151 102.754214,80.7096271 C99.1391518,85.4697274 95.2037308,88 91.5004967,88 C83.0562413,88 81.4591481,77.8508992 79.6119397,68.5741222 C78.6667333,63.8273602 77.9134485,59.7945298 77.5081501,58.3710014 C77.1160775,56.9944904 76.6146714,56.7413964 76.0386127,58.3156475 C73.6244568,64.9110958 69.8033658,80.5992528 62.4013063,80.7433062 C56.1122744,80.8660184 53.5790859,72.1261074 53.3586553,68.9582648 C50.370792,80.9907314 46.5987836,87.9653205 39.1291253,87.4611333 C31.6224347,86.9546119 29.3270174,77.2823548 28.8400128,56.4372835 C28.7741775,53.6272404 28.6125284,49.3719941 28.5131877,46.4385719 C28.4123774,43.4574653 27.2476221,43.6552053 26.129892,46.2718433 C24.8884269,49.1789225 22.6858843,54.4842252 21.5555162,57.4083107 C15.5718541,72.8890573 13.6867316,79.9096634 7.59520548,79.9096634 C0.612845803,79.9096634 -0.248009165,70.7792741 0.0497190982,56.6460277 C0.305418594,44.5021864 1.79494163,25.4471129 4.30079669,0 L16.0556258,1.53090162 C14.0840945,21.5556684 12.9745938,35.7115899 12.383252,45.7156369 C17.1489616,31.7317792 24.1142746,25.5111367 30.6713502,26.3367765 C39.3577853,27.4305159 41.0665633,37.8323772 41.8983215,55.7590318 C41.9988378,57.8688149 42.0940638,63.7773416 42.3003869,66.9992043 C42.3738638,68.1452964 42.8267752,68.0676009 43.1086324,67.2699714 C46.5499949,57.5373586 48.2643572,46.4222325 49.630733,38.4292654 C50.5427279,33.0939515 52.4281443,31.0832051 56.7876737,31.9722018 C61.1810025,32.8682011 61.8602227,35.3561246 61.8928464,40.3396412 C61.9248823,45.1454252 62.0780081,54.6476192 63.5025776,61.0880099 C67.2213888,52.1466908 69.7439965,40.7811385 77.9734056,41.2813241 C87.8384097,41.88088 89.1706922,55.6103099 91.1918939,66.1358838 C91.5798517,68.1576343 92.1382759,70.8169548 92.693761,72.8763859 C95.803302,70.3201037 104.547049,57.926503 95.2772077,42.7818812 C93.7194981,40.2346022 92.7172736,37.2658335 95.9767074,33.9869497 C98.63657,31.3082887 100.714496,31.1108821 103.406688,34.0686467 C108.858672,40.0568696 112.514881,42.4040742 117.573028,43.3590954 C119.451097,32.0125501 125.264586,25.0009473 132.706323,22.2786034 C143.016597,18.5078703 153.661926,25.9683064 150.658191,39.1231897 C148.774245,47.3805882 141.185554,54.7753333 130.331551,56.4346159 C131.615927,60.3884169 134.219947,63.2021281 138.269992,63.2021281 C144.947569,63.2021281 148.433312,57.2705929 149.585429,55.3858932 L158,63.6502944 C155.757486,67.8385158 149.306217,76.6334473 137.44999,76.6334473 C128.338859,76.6334473 118.945576,69.7922411 117.214461,56.2222037 C114.563416,55.8463975 112.488429,55.3352078 110.839608,54.8646998 Z" id="Fill-3"></path>
        </g>
    </g>
</svg>
